!!!!SEGMENT: pl-kk--kk-i-386--002-008_anonim--missa-seconda-agnus.krn
!!!cenid: 18xx:4515
!!!COM: Anonim
!!!COM-rismID: pe30004985
!!!CDT:
!!!CNT:
!!!OPR: Missa seconda
!!!OTL: Agnus
!!!OMV: 008
!!!PDT:
!!!AGN: Sacred
!!!YEC: Copyright 2022 Narodowy Instytut Fryderyka Chopina (https://polishscores.org)
!!!YEM: License CC-BY-4.0 (https://creativecommons.org/licenses/by/4.0)
!!!SMS-siglum: PL-Kk
!!!SMS-shelfmark: Kk.I.386
!!!SMS-variant:
!!!SMS-altvar:
!!!SMS-shelfwork: 002-008 M
!!!NIFC-rismSourceID: 1001218240
!!!NIFC-rismChildID: 1001218243
!!!NIFC-islandoraID: pl-kk:16060
!!!URL-pdf-islandora: https://repozytorium.nifc.pl/islandora/object/pl-kk%3A16060/datastream/PDF/view
!!!URL-scan: https://polish.musicsources.pl/pl/lokalizacje/galeria/rekopisy/7134/3 @EN{Scan on Polish Music Sources Website} @PL{Skany w portalu Dziedzictwo Muzyki Polskiej w otwartym dostępie}
!!!IIIF:
!!!ONB-nifc: UWAGA: Części Missy Seconda: Rorate, Kyrie, Gloria, Graduale, Offertorium, Sanctus, Benedicuts, Agnus. Zakres skanów: S – 6-9, A – 15-19, T – 25-29, B – 35-39
!!!AIN: 1 alto 1 bass 1 soprn 1 tenor
!!!key:
**kern	**text	**kern	**text	**kern	**text	**kern	**text
*part4	*part4	*part3	*part3	*part2	*part2	*part1	*part1
*staff4	*staff4	*staff3	*staff3	*staff2	*staff2	*staff1	*staff1
*I"Basso.	*	*I"Tenore.	*	*I"Alto.	*	*I"Soprano.	*
*I'B	*	*I'T	*	*I'A	*	*I'S	*
*Ibass	*	*Itenor	*	*Ialto	*	*Isoprn	*
*ICvox	*	*ICvox	*	*ICvox	*	*ICvox	*
*clefF4	*	*clefC4	*	*clefC3	*	*clefC1	*
*k[]	*	*k[]	*	*k[]	*	*k[]	*
*C:	*	*C:	*	*C:	*	*C:	*
*M4/4	*	*M4/4	*	*M4/4	*	*M4/4	*
*met(c)	*	*met(c)	*	*met(c)	*	*met(c)	*
=1	=1	=1	=1	=1	=1	=1	=1
*	*	*	*	*2\right	*	*2\right	*
!LO:TX:a:t=in C.	!	!	!	!LO:TX:a:t=Andante Sostenuto.	!	!LO:TX:a:t=Andante Sostenuto.	!
*	*	*2\right	*	*	*	*	*
4C/	A-	2G/	A-	4e\	A-	(2cc\	A-
8E\L	.	.	.	4g\	.	.	.
8F\J	.	.	.	.	.	.	.
4G\	.	4B\	.	2g\	-gnus	4dd\)	.
4G\	-gnus	4B\	-gnus	.	.	4dd\	-gnus
=2	=2	=2	=2	=2	=2	=2	=2
4c\	De-	2c\	De-	2g\	De-	2ee\	De-
8E\L	.	.	.	.	.	.	.
8F\J	.	.	.	.	.	.	.
4G\	-i	4B\	-i	4g\	-i	4dd\	-i
4r	.	8B\L	qui	4r	.	8dd\L	qui
.	.	8c\J	.	.	.	8ee\J	.
=3	=3	=3	=3	=3	=3	=3	=3
4r	.	2.d\	tol-	4r	.	2ff\	tol-
8G\L	qui	.	.	8b\L	qui	.	.
8A\J	.	.	.	8cc\J	.	.	.
4B\	tol-	.	.	4dd\	tol-	4ee\	-lis
8c\	-lis	4c\	.	8ee\	-lis	4ee\	pec-
8c\	pec-	.	.	8cc\	pec-	.	.
=4	=4	=4	=4	=4	=4	=4	=4
4G\	-ca-	2B\	-lis	4g\	-ca-	4dd\	-ca-
4G\	-ta	.	.	4g\	-ta	4dd\	-ta
!LO:LB:g=original	!	!	!	!	!	!	!
4r	.	4r	.	4r	.	4r	.
4G\	qui	4B\	qui	4b\	qui	4dd\	qui
!	!	!LO:LB:g=original	!	!	!	!	!
=5	=5	=5	=5	=5	=5	=5	=5
*2\right	*	*	*	*	*	*	*
2F#X\	tol-	2c\	tol-	2a\	tol-	4ee\	tol-
!	!	!	!	!	!	!LO:LB:g=original	!
.	.	.	.	.	.	8dd\	-lis
.	.	.	.	.	.	8dd\	pec-
!	!	!	!	!LO:LB:g=original	!	!	!
4F#\	-lis	4c\	-lis	4a\	-lis	4dd\	-ca-
4F#\	pec-	4c\	pec-	4a\	pec-	4dd\	-ta
=6	=6	=6	=6	=6	=6	=6	=6
(4G\	-ca-	4B\	-ca-	2g\	-ca-	8dd\L	pec-
.	.	.	.	.	.	8gg\J	.
4C/)	-[ta]-	4c\	.	.	.	8ff#X\L	.
.	.	.	.	.	.	8ee\J	.
2D\	-ta	4B\	.	4g\	.	4dd\	-ca-
.	.	4A\	-ta	4f#X\	-ta	4dd\	-ta
=7	=7	=7	=7	=7	=7	=7	=7
4GG/	mun-	4B\	mun-	4g\	mun-	4b\	mun-
4GG/	-di	4B\	-di	4g\	-di	4b\	-di,
4r	.	4r	.	4r	.	4r	.
4G\	qui	4d\	qui	4g\	qui	4dd\	qui
=8	=8	=8	=8	=8	=8	=8	=8
4G\	tol-	2d\	tol-	4b\	tol-	2ff\	tol-
8A\L	.	.	.	8cc\L	.	.	.
8B\J	.	.	.	8dd\J	.	.	.
4c\	-lis	4c\	-lis	4ee\	-lis	4ee\	-lis
4C/	qui	4c\	qui	4g\	qui	4ee\	qui
=9	=9	=9	=9	=9	=9	=9	=9
4E\	tol-	2B\	tol-	4g#X\	tol-	2dd\	tol-
8F#X\L	.	.	.	8a\L	.	.	.
8G#X\J	.	.	.	8b\J	.	.	.
4A\	-lis	4B\	-lis	4cc\	-lis	4cc\	-lis
4Gn\	pec-	4B\	pec-	4a\	pec-	4cc#X\	pec-
!LO:LB:g=original	!	!	!	!	!	!LO:LB:g=original	!
=10	=10	=10	=10	=10	=10	=10	=10
2F\	-ca-	2A\	-ca-	2a\	-ca-	2dd\	-ca-
2C#X/	-ta	2A\	-ta	2g\	-ta	2ee\	-ta
!	!	!LO:LB:g=original	!	!	!	!	!
=11	=11	=11	=11	=11	=11	=11	=11
4D\	mun-	4A\	mun-	4f\	mun-	4ff\	mun-
4D\	-di	4A\	-di	4f\	-di	4ff\	-di
!	!	!	!	!LO:LB:g=original	!	!	!
4r	.	4r	.	4r	.	4r	.
8F\	mi-	8A\	mi-	8a\	mi-	8dd\	mi-
8F\	-se-	8A\	-se-	8a\	-se-	8dd\	-se-
=12	=12	=12	=12	=12	=12	=12	=12
2F\	-re-	2B\	-re-	2.g\	-re-	2dd\	-re-
4E\	.	4c\	.	.	.	4ee\	.
4D\	-re	4d\	-re	4b\	-re	4ff\	-re
=13	=13	=13	=13	=13	=13	=13	=13
4C\	mi-	8e\L	mi-	4cc\	mi-	8gg\L	mi-
.	.	8f\J	.	.	.	8aa\J	.
4F\	-se-	8e\L	-se-	4a\	-se-	8gg\L	-se-
.	.	8d\J	.	.	.	8ff\J	.
4G\	-re-	4c\	-re-	4.g\	-re-	4ee\	-re-
4G\	-re	4B\	-re	.	.	4dd\	-re
.	.	.	.	8f\	-re	.	.
=14	=14	=14	=14	=14	=14	=14	=14
4C/	no-	4c\	no-	4e\	no-	4cc\	no-
4C/	-bis	4c\	-bis	4e\	-bis	4cc\	-bis
4r	.	4r	.	4r	.	4r	.
8e\	A-	8e\	A-	8ee\	a-	8ee\L	a-
8d\	-gnus	8d\	-gnus	8dd\	-gnus	8dd\J	-gnus
!	!	!	!	!	!	!LO:LB:g=original	!
=15	=15	=15	=15	=15	=15	=15	=15
4.c\	De-	4.c\	De-	(4.cc\	De-	4.cc\	De-
8B\	.	8B\	.	8b\)	.	8b\	.
!LO:LB:g=original	!	!LO:LB:g=original	!	!	!	!	!
8A\L	-i	8A/L	-i	8a\L	-i	8a/L	-i
8G\J	.	8G/J	.	8g\	.	8g/J	.
8F#X\L	qui	8F#X/L	qui	8f#X\	qui	8f#X/L	qui
8E\J	.	8E/J	.	8e\J	.	8e/J	.
=16	=16	=16	=16	=16	=16	=16	=16
4.D\	tol-	4.D/	tol-	4.d\	tol-	4.d/	tol-
8E\	.	8E/	.	8e\	.	8e/	.
!	!	!	!	!LO:LB:g=original	!	!	!
8F#X\L	-lis,	8F#X/L	-lis	8f#X\L	-lis	8f#X\L	-lis
8G\J	.	8G/J	.	8g\J	.	8g\J	.
8A\L	qui	8A\L	qui	8a\L	pec-	8a\L	pec-
8B\J	.	8B\J	.	8b\J	.	8b\J	.
=17	=17	=17	=17	=17	=17	=17	=17
4.c\	tol-	4.c\	tol-	4.cc\	-ca-	4.cc\	-ca-
8B\	.	8B\	.	8b\	.	8b\	.
8A\L	-lis	8A/L	-lis	8a\L	-ta	8a/L	-ta
8G\J	.	8G/J	.	8g\J	.	8g/J	.
8F#X\L	pec-	8F#X/L	pec-	8f#X\L	pec-	8f#X/L	pec-
8E\J	.	8E/J	.	8e\J	.	8e/J	.
=18	=18	=18	=18	=18	=18	=18	=18
4D\	-ca-	4D/	-ca-	4d\	-ca-	4d/	-ca-
4D\	-ta	4D/	-ta	4d\	-ta	4dd\	-ta
4r	.	4r	.	4r	.	4r	.
4d\	pec-	4d\	pec-	4dd\	pec-	4ff#X\	pec-
!	!	!	!	!	!	!LO:LB:g=original	!
=19	=19	=19	=19	=19	=19	=19	=19
2d\	-ca-	2d\	-ca-	2dd\	-ca-	2ff#X\	-ca-
2c\	-ta	2d\	-ta	2dd\	-ta	2ff#\	-ta
!LO:LB:g=original	!	!LO:LB:g=original	!	!	!	!	!
=20	=20	=20	=20	=20	=20	=20	=20
2B\	mun-	2d\	mun-	2dd\	mun-	2gg\	mun-
4E\	-di	4B\	-di	4g\	-di	4b\	-di
4E\	pec-	4B\	pec-	4g\	pec-	8cc\L	pec-
.	.	.	.	.	.	8dd\J	.
=21	=21	=21	=21	=21	=21	=21	=21
2C/	-ca-	2A\	-ca-	2g\	-ca-	2ee\	-ca-
!	!	!	!	!LO:LB:g=original	!	!	!
2D\	-ta	2A\	-ta	2f#X\	-ta	2dd\	-ta
=22	=22	=22	=22	=22	=22	=22	=22
4GG/	mun-	4G/	mun-	4g\	mun-	4g/	mun-
4GG/	-di	4G/	-di	4g\	-di	4g/	-di
4r	.	4r	.	4r	.	4r	.
!	!	!LO:TX:b:t=Volti Subitto,	!	!	!	!	!
4G\	qui	4G/	qui	4d\	qui	4b\	qui
!	!	!LO:PB:g=original	!	!	!	!	!
=23	=23	=23	=23	=23	=23	=23	=23
4C/	tol-	4G/	tol-	4e\	tol-	4cc\	tol-
8GG/	-lis	8G/	-lis	8d\	-lis	8b\	-lis
8GG/	pec-	8G/	pe-	8d\	pec-	8b\	pec-
4C/	-ca-	4G/	-ca-	4e\	-ca-	4cc\	-ca-
4AA/	-ta	4A/	-ta	4e\	-ta	4cc#X\	-ta
!	!	!	!	!	!	!LO:LB:g=original	!
=24	=24	=24	=24	=24	=24	=24	=24
4D\	mun-	4A\	mun-	4f\	mun-	4dd\	mun-
4D\	-di,	4A\	-di	4f\	-di	4dd\	-di
4r	.	4r	.	4r	.	4r	.
!LO:TX:b:t=Volti Subitto.	!	!	!	!	!	!	!
4AA/	qui	4A\	qui	4e\	qui	4cc#X\	qui
!LO:PB:g=original	!	!	!	!	!	!	!
=25	=25	=25	=25	=25	=25	=25	=25
4D\	tol-	4A\	tol-	4f\	tol-	4dd\	tol-
4AA/	.	8A\	-lis	8e\	-lis	8cc#X\	-lis
.	.	8A\	pe-	8e\	pec-	8cc#\	pec-
4D/	-lis	4A\	-ca-	4f\	-ca-	4dd\	-ca-
4BB/	pec-	4B\	-ta	4f#X\	-ta	4dd#X\	-ta
!	!	!	!	!LO:LB:g=original	!	!	!
=26	=26	=26	=26	=26	=26	=26	=26
4E\	-ca-	4B\	mun-	4g#X\	mun-	4ee\	mun-
4E\	-ta	4B\	-di	4g#\	-di	4ee\	-di
4r	.	4r	.	4r	.	4r	.
8E\	mi-	8B\	mi-	4g#\	mi-	8ee\	mi-
8E\	-se-	8B\	-se-	.	.	8ee\	-se-
=27	=27	=27	=27	=27	=27	=27	=27
4C/	-re-	4c\	-re-	4gn\	.	4ee\	-re-
4C/	-re	4c\	-re	4g\	-se-	4ee\	-re
!	!	!LO:LB:g=original	!	!	!	!	!
4B-X\	mi-	4c\	mi-	4cc\	-re-	4ee\	mi-
4B-\	-se-	4c\	-se-	4cc\	-re	8dd\L	-se-
.	.	.	.	.	.	8ee\J	.
!	!	!	!	!	!	!LO:LB:g=original	!
=28	=28	=28	=28	=28	=28	=28	=28
4A\	-re-	4c\	-re-	4cc\	no-	4ff\	-re-
4A\	-re	4c\	-re	4cc\	-bis	4ff\	-re
4r	.	4r	.	4r	.	4r	.
8A-X\	mi-	8e-X\	mi-	8cc\	mi-	8ff#X\	mi-
8A-\	-se-	8e-\	-se-	8cc\	-se-	8ff#\	-se-
=29	=29	=29	=29	=29	=29	=29	=29
4G\	-re-	4en\	-re-	4cc\	-re-	4gg\	-re-
4G\	-re	8c\L	.	4g\	.	8ee\L	.
.	.	8d\J	.	.	.	8ffn\J	.
4G\	no-	4e\	.	4g\	.	4gg\	.
4G\	-bis	8G/L	-re	8e\L	-re	8cc\L	-re
.	.	8B/J	.	8f\J	.	8dd\J	.
!LO:LB:g=original	!	!	!	!	!	!	!
=30	=30	=30	=30	=30	=30	=30	=30
2G\	no-	2c\	no-	2g\	no-	2ee\	no-
2GG/	.	2B\	.	2f\	.	2dd\	.
!	!	!	!	!LO:LB:g=original	!	!	!
=31	=31	=31	=31	=31	=31	=31	=31
2C/	-bis.	2c\	-bis	2e\	-bis	2cc\	-bis,
4r	.	4r	.	4r	.	4r	.
4G\	do-	4G/	do-	4d\	do-	4b\	Do-
=32	=32	=32	=32	=32	=32	=32	=32
4C/	.	4G/	.	4e\	.	4cc\	.
4GG/	-na	4G/	-na	4d\	-na	4b\	-na
4C/	no-	4G/	no-	4e\	no-	4cc\	no-
4AA/	-bis	4A/	-bis	4e\	-bis	4cc#X\	-bis
!	!	!LO:LB:g=original	!	!	!	!LO:LB:g=original	!
=33	=33	=33	=33	=33	=33	=33	=33
4D\	pa-	4A\	pa-	4f\	pa-	4dd\	pa-
4D\	-cem	4A\	-cem	4f\	-cem	4dd\	-cem
4r	.	4r	.	4r	.	4r	.
4AA/	do-	4A\	do-	4e\	do-	4cc#X\	do-
=34	=34	=34	=34	=34	=34	=34	=34
4D/	.	4A\	.	4f\	.	4dd\	.
4AA/	-na	4A\	-na	4e\	-na	4cc#X\	-na
4D/	no-	4A\	no-	4f\	no-	4dd\	no-
4AA/	-bis	4B\	-bis	4f#X\	-bis	4dd#X\	-bis
=35	=35	=35	=35	=35	=35	=35	=35
4E\	pa-	4B\	pa-	4g#X\	pa-	4ee\	pa-
4E\	-cem	4B\	-cem	4g#\	-cem	4ee\	-cem
4r	.	4r	.	4r	.	4r	.
4E\	do-	4B\	do-	4g#\	do-	4ee\	do-
!LO:LB:g=original	!	!	!	!LO:LB:g=original	!	!	!
=36	=36	=36	=36	=36	=36	=36	=36
4C/	.	4c\	.	4gn\	.	4ee\	.
4C/	-na	4c\	-na	4g\	-na	4ee\	-na
4B-X\	no-	4c\	no-	4cc\	no-	4ee\	no-
4B-\	-bis	4c\	-bis	4cc\	-bis	8dd\L	-bis
.	.	.	.	.	.	8ee\J	.
=37	=37	=37	=37	=37	=37	=37	=37
4A\	pa-	4c\	pa-	4cc\	pa-	4ff\	pa-
4A\	-cem	4c\	-cem	4cc\	-cem	4ff\	-cem
4r	.	4r	.	4r	.	4r	.
4A-X\	do-	4e-X\	do-	4cc\	do-	4ff#X\	do-
!	!	!LO:LB:g=original	!	!	!	!LO:LB:g=original	!
=38	=38	=38	=38	=38	=38	=38	=38
4G\	.	4en\	.	4cc\	.	4gg\	.
4G\	-na	8c\L	-na	4g\	-na	8ee\L	-na
.	.	8d\J	.	.	.	8ffn\J	.
4G\	no-	4e\	no-	4g\	no-	4gg\	no-
4G\	-bis	8G\L	.	8e\L	-bis	8cc\L	-bis
.	.	8B\J	-bis	8f\J	.	8dd\J	.
=39	=39	=39	=39	=39	=39	=39	=39
2G\	pa-	2c\	pa-	2g\	pa-	2ee\	pa-
2GG/	.	2B\	.	2f\	.	2dd\	.
=40	=40	=40	=40	=40	=40	=40	=40
2C/	-cem.	2c\	-cem.	2e\	-cem.	2cc\	-cem.
2r	.	2r	.	2r	.	2r	.
==	==	==	==	==	==	==	==
*-	*-	*-	*-	*-	*-	*-	*-
!!!system-decoration: [(s1,s2,s3,s4)]
!!!ENC: Andrzej Gręziak
!!!END: 2023-11-02
!!!ENC: Leszek Kubiak
!!!END: 2024-06-27
